build/img/icon-pin.svg

<svg width="18" height="22" viewBox="0 0 18 22" fill="none" xmlns="http://www.w3.org/2000/svg">
  <path d="M15.364 15.5563L9 22L2.636 15.5563C1.37734 14.2819 0.520187 12.6581 0.172928 10.8905C-0.17433 9.12277 0.00390685 7.29051 0.685099 5.62539C1.36629 3.96027 2.51984 2.53707 3.99988 1.53576C5.47992 0.534448 7.21998 0 9 0C10.78 0 12.5201 0.534448 14.0001 1.53576C15.4802 2.53707 16.6337 3.96027 17.3149 5.62539C17.9961 7.29051 18.1743 9.12277 17.8271 10.8905C17.4798 12.6581 16.6227 14.2819 15.364 15.5563ZM9 11.1377C9.53044 11.1377 10.0391 10.9243 10.4142 10.5445C10.7893 10.1648 11 9.64969 11 9.11262C11 8.57554 10.7893 8.06047 10.4142 7.6807C10.0391 7.30093 9.53044 7.08757 9 7.08757C8.46957 7.08757 7.96086 7.30093 7.58579 7.6807C7.21072 8.06047 7 8.57554 7 9.11262C7 9.64969 7.21072 10.1648 7.58579 10.5445C7.96086 10.9243 8.46957 11.1377 9 11.1377Z" fill="#011C40"/>
</svg>

<svg width="18" height="22" fill="none" xmlns="http://www.w3.org/2000/svg"><path d="M15.364 15.556L9 22l-6.364-6.444a9.149 9.149 0 01-2.463-4.665 9.219 9.219 0 01.512-5.266A9.09 9.09 0 014 1.535 8.921 8.921 0 019 0c1.78 0 3.52.534 5 1.536a9.089 9.089 0 013.315 4.09 9.22 9.22 0 01.512 5.264 9.149 9.149 0 01-2.463 4.666zM9 11.138c.53 0 1.04-.214 1.414-.594a2.038 2.038 0 000-2.864A1.988 1.988 0 009 7.089c-.53 0-1.04.213-1.414.593A2.03 2.03 0 007 9.113c0 .537.21 1.052.586 1.431.375.38.884.594 1.414.594z" fill="#011C40"/></svg>
